ui/StatusQ/src/assets/img/icons/transaction/finished.svg

<svg fill="none" height="24" viewBox="0 0 24 24" width="24" xmlns="http://www.w3.org/2000/svg" xmlns:xlink="http://www.w3.org/1999/xlink"><mask id="a" fill="#000" height="24" maskUnits="userSpaceOnUse" width="24" x="0" y="0"><path clip-rule="evenodd" d="m2 12c0 1.49.97763 2.7517 2.32644 3.1786-.65184 1.2555-.45098 2.8389.60259 3.8925 1.05355 1.0535 2.63688 1.2544 3.89245.6026.42692 1.3487 1.68852 2.3263 3.17852 2.3263 1.4901 0 2.7518-.9778 3.1786-2.3267 1.2556.6517 2.8388.4508 3.8923-.6027 1.0534-1.0535 1.2544-2.6366.6028-3.8921 1.3487-.4269 2.3263-1.6885 2.3263-3.1785 0-1.4898-.9774-2.7514-2.326-3.17842.6513-1.25544.4503-2.83832-.603-3.89164-1.0535-1.05347-2.6367-1.2544-3.8922-.60277-.4267-1.34918-1.6885-2.32717-3.1788-2.32717-1.4901 0-2.75189.9778-3.17867 2.32678-1.25556-.65176-2.83886-.45088-3.8924.60266-1.05345 1.05345-1.25439 2.63658-.60281 3.8921-1.34864.42697-2.32612 1.68856-2.32612 3.17846z" fill="#000" fill-rule="evenodd"/></mask><path clip-rule="evenodd" d="m2 12c0 1.49.97763 2.7517 2.32644 3.1786-.65184 1.2555-.45098 2.8389.60259 3.8925 1.05355 1.0535 2.63688 1.2544 3.89245.6026.42692 1.3487 1.68852 2.3263 3.17852 2.3263 1.4901 0 2.7518-.9778 3.1786-2.3267 1.2556.6517 2.8388.4508 3.8923-.6027 1.0534-1.0535 1.2544-2.6366.6028-3.8921 1.3487-.4269 2.3263-1.6885 2.3263-3.1785 0-1.4898-.9774-2.7514-2.326-3.17842.6513-1.25544.4503-2.83832-.603-3.89164-1.0535-1.05347-2.6367-1.2544-3.8922-.60277-.4267-1.34918-1.6885-2.32717-3.1788-2.32717-1.4901 0-2.75189.9778-3.17867 2.32678-1.25556-.65176-2.83886-.45088-3.8924.60266-1.05345 1.05345-1.25439 2.63658-.60281 3.8921-1.34864.42697-2.32612 1.68856-2.32612 3.17846z" fill="#4360df" fill-rule="evenodd"/><path d="m4.32644 15.1786 1.4792.7679.91315-1.7589-1.88946-.598zm.60259 3.8925 1.17851-1.1785zm3.89245.6026 1.58892-.503-.59798-1.8893-1.75884.9131zm6.35712-.0004.7678-1.4793-1.759-.913-.5978 1.8895zm3.8923-.6027-1.1785-1.1785zm.6028-3.8921-.503-1.589-1.889.598.9127 1.7587zm.0003-6.35692-1.4794-.76749-.9122 1.75841 1.8885.598zm-.603-3.89164 1.1785-1.17851zm-3.8922-.60277-1.5891.50252.5976 1.88984 1.7593-.91306zm-6.35747-.00039-.76787 1.47924 1.75909.91314.59785-1.88966zm-3.8924.60266 1.17851 1.17851zm-.60281 3.8921.50305 1.58896 1.88895-.59805-.91268-1.75864zm.50321 4.76806c-.67596-.214-1.16266-.8471-1.16266-1.5896h-3.333337c0 2.2375 1.468557 4.1277 3.490207 4.7675zm1.27821 4.303c-.525-.525-.62857-1.3169-.3019-1.9461l-2.95841-1.5359c-.977 1.8819-.67885 4.2568.90329 5.839zm1.94604.3019c-.62924.3266-1.42105.223-1.94604-.3019l-2.35702 2.357c1.58211 1.5821 3.95696 1.8803 5.83887.9033zm3.94642 2.1388c-.7425 0-1.3756-.4866-1.5896-1.1626l-3.17788 1.0059c.63988 2.0216 2.53001 3.4901 4.76748 3.4901zm1.5896-1.1628c-.2139.6761-.8471 1.1628-1.5896 1.1628v3.3334c2.2377 0 4.128-1.4688 4.7677-3.4906zm4.3028-1.2784c-.525.5249-1.3167.6285-1.946.3019l-1.5356 2.9586c1.8819.9767 4.2566.6785 5.8386-.9035zm.302-1.9459c.3265.6292.2229 1.4209-.302 1.9459l2.357 2.357c1.5819-1.582 1.8802-3.9565.9036-5.8383zm2.1389-3.9462c0 .7425-.4866 1.3756-1.1626 1.5895l1.006 3.178c2.0215-.6399 3.49-2.53 3.49-4.7675zm-1.1624-1.5895c.6758.214 1.1624.8471 1.1624 1.5895h3.3334c0-2.23729-1.4683-4.1273-3.4896-4.76733zm-1.2784-4.30205c.5248.52488.6285 1.31646.3021 1.94564l2.9588 1.53499c.9762-1.88171.6779-4.25588-.9039-5.83765zm-1.9459-.30198c.6292-.32657 1.4209-.22297 1.9459.30198l2.357-2.35702c-1.582-1.582-3.9566-1.88024-5.8385-.90355zm-3.9466-2.1398c.7426 0 1.3759.48688 1.5897 1.16302l3.1782-1.00504c-.6395-2.02223-2.53-3.491317-4.7679-3.491317zm-1.5896 1.16283c.2139-.67605.8471-1.16283 1.5896-1.16283v-3.333337c-2.23773 0-4.12804 1.468807-4.76771 3.490727zm-4.30296 1.27845c.52499-.52498 1.31679-.62857 1.94602-.30193l1.53575-2.95848c-1.8819-.97689-4.2567-.6787-5.83879.90338zm-.302 1.94586c-.32654-.62921-.22294-1.42092.302-1.94586l-2.35702-2.35703c-1.58196 1.58197-1.88023 3.95652-.90361 5.83835zm-2.13877 3.94619c0-.7424.48662-1.3755 1.1625-1.5895l-1.00609-3.1779c-2.02141.63997-3.489747 2.53003-3.489747 4.7674z" mask="url(#a)"/><path d="m9.4987 9.5h2.5 2.5l1.6667 1.6667-4.1667 5-4.16667-5z" stroke="#fff" stroke-linejoin="round" stroke-width="1.5"/></svg>

<svg width="24" height="24" viewBox="0 0 24 24" fill="none" xmlns="http://www.w3.org/2000/svg">
<mask id="path-1-outside-1_12304_260258" maskUnits="userSpaceOnUse" x="0" y="0" width="24" height="24" fill="black">
<path fill-rule="evenodd" clip-rule="evenodd" d="M2 12C2 13.49 2.97763 14.7517 4.32644 15.1786C3.6746 16.4341 3.87546 18.0175 4.92903 19.0711C5.98258 20.1246 7.56591 20.3255 8.82148 19.6737C9.2484 21.0224 10.51 22 12 22C13.4901 22 14.7518 21.0222 15.1786 19.6733C16.4342 20.325 18.0174 20.1241 19.0709 19.0706C20.1243 18.0171 20.3253 16.434 19.6737 15.1785C21.0224 14.7516 22 13.49 22 12C22 10.5102 21.0226 9.2486 19.674 8.82158C20.3253 7.56614 20.1243 5.98326 19.071 4.92994C18.0175 3.87647 16.4343 3.67554 15.1788 4.32717C14.7521 2.97799 13.4903 2 12 2C10.5099 2 9.24811 2.9778 8.82133 4.32678C7.56577 3.67502 5.98247 3.8759 4.92893 4.92944C3.87548 5.98289 3.67454 7.56602 4.32612 8.82154C2.97748 9.24851 2 10.5101 2 12Z"/>
</mask>
<path fill-rule="evenodd" clip-rule="evenodd" d="M2 12C2 13.49 2.97763 14.7517 4.32644 15.1786C3.6746 16.4341 3.87546 18.0175 4.92903 19.0711C5.98258 20.1246 7.56591 20.3255 8.82148 19.6737C9.2484 21.0224 10.51 22 12 22C13.4901 22 14.7518 21.0222 15.1786 19.6733C16.4342 20.325 18.0174 20.1241 19.0709 19.0706C20.1243 18.0171 20.3253 16.434 19.6737 15.1785C21.0224 14.7516 22 13.49 22 12C22 10.5102 21.0226 9.2486 19.674 8.82158C20.3253 7.56614 20.1243 5.98326 19.071 4.92994C18.0175 3.87647 16.4343 3.67554 15.1788 4.32717C14.7521 2.97799 13.4903 2 12 2C10.5099 2 9.24811 2.9778 8.82133 4.32678C7.56577 3.67502 5.98247 3.8759 4.92893 4.92944C3.87548 5.98289 3.67454 7.56602 4.32612 8.82154C2.97748 9.24851 2 10.5101 2 12Z" fill="#4360DF"/>
<path d="M4.32644 15.1786L5.80564 15.9465L6.71879 14.1876L4.82933 13.5896L4.32644 15.1786ZM4.92903 19.0711L6.10754 17.8926V17.8926L4.92903 19.0711ZM8.82148 19.6737L10.4104 19.1707L9.81242 17.2814L8.05358 18.1945L8.82148 19.6737ZM15.1786 19.6733L15.9464 18.194L14.1874 17.281L13.5896 19.1705L15.1786 19.6733ZM19.0709 19.0706L17.8924 17.8921L17.8924 17.8921L19.0709 19.0706ZM19.6737 15.1785L19.1707 13.5895L17.2817 14.1875L18.1944 15.9462L19.6737 15.1785ZM19.674 8.82158L18.1946 8.05409L17.2824 9.8125L19.1709 10.4105L19.674 8.82158ZM19.071 4.92994L20.2495 3.75143V3.75143L19.071 4.92994ZM15.1788 4.32717L13.5897 4.82969L14.1873 6.71953L15.9466 5.80647L15.1788 4.32717ZM8.82133 4.32678L8.05346 5.80602L9.81255 6.71916L10.4104 4.8295L8.82133 4.32678ZM4.92893 4.92944L6.10744 6.10795L4.92893 4.92944ZM4.32612 8.82154L4.82917 10.4105L6.71812 9.81245L5.80544 8.05381L4.32612 8.82154ZM4.82933 13.5896C4.15337 13.3756 3.66667 12.7425 3.66667 12H0.333333C0.333333 14.2375 1.80189 16.1277 3.82354 16.7675L4.82933 13.5896ZM6.10754 17.8926C5.58254 17.3676 5.47897 16.5757 5.80564 15.9465L2.84723 14.4106C1.87023 16.2925 2.16838 18.6674 3.75052 20.2496L6.10754 17.8926ZM8.05358 18.1945C7.42434 18.5211 6.63253 18.4175 6.10754 17.8926L3.75052 20.2496C5.33263 21.8317 7.70748 22.1299 9.58939 21.1529L8.05358 18.1945ZM12 20.3333C11.2575 20.3333 10.6244 19.8467 10.4104 19.1707L7.23252 20.1766C7.8724 22.1982 9.76253 23.6667 12 23.6667V20.3333ZM13.5896 19.1705C13.3757 19.8466 12.7425 20.3333 12 20.3333V23.6667C14.2377 23.6667 16.128 22.1979 16.7677 20.1761L13.5896 19.1705ZM17.8924 17.8921C17.3674 18.417 16.5757 18.5206 15.9464 18.194L14.4108 21.1526C16.2927 22.1293 18.6674 21.8311 20.2494 20.2491L17.8924 17.8921ZM18.1944 15.9462C18.5209 16.5754 18.4173 17.3671 17.8924 17.8921L20.2494 20.2491C21.8313 18.6671 22.1296 16.2926 21.153 14.4108L18.1944 15.9462ZM20.3333 12C20.3333 12.7425 19.8467 13.3756 19.1707 13.5895L20.1767 16.7675C22.1982 16.1276 23.6667 14.2375 23.6667 12H20.3333ZM19.1709 10.4105C19.8467 10.6245 20.3333 11.2576 20.3333 12H23.6667C23.6667 9.76271 22.1984 7.8727 20.1771 7.23267L19.1709 10.4105ZM17.8925 6.10845C18.4173 6.63333 18.521 7.42491 18.1946 8.05409L21.1534 9.58908C22.1296 7.70737 21.8313 5.3332 20.2495 3.75143L17.8925 6.10845ZM15.9466 5.80647C16.5758 5.4799 17.3675 5.5835 17.8925 6.10845L20.2495 3.75143C18.6675 2.16943 16.2929 1.87119 14.411 2.84788L15.9466 5.80647ZM12 3.66667C12.7426 3.66667 13.3759 4.15355 13.5897 4.82969L16.7679 3.82465C16.1284 1.80242 14.2379 0.333333 12 0.333333V3.66667ZM10.4104 4.8295C10.6243 4.15345 11.2575 3.66667 12 3.66667V0.333333C9.76227 0.333333 7.87196 1.80214 7.23229 3.82406L10.4104 4.8295ZM6.10744 6.10795C6.63243 5.58297 7.42423 5.47938 8.05346 5.80602L9.58921 2.84754C7.70731 1.87065 5.33251 2.16884 3.75042 3.75092L6.10744 6.10795ZM5.80544 8.05381C5.4789 7.4246 5.5825 6.63289 6.10744 6.10795L3.75042 3.75092C2.16846 5.33289 1.87019 7.70744 2.84681 9.58927L5.80544 8.05381ZM3.66667 12C3.66667 11.2576 4.15329 10.6245 4.82917 10.4105L3.82308 7.2326C1.80167 7.87257 0.333333 9.76263 0.333333 12H3.66667Z" mask="url(#path-1-outside-1_12304_260258)"/>
<path d="M9.4987 9.5H11.9987H14.4987L16.1654 11.1667L11.9987 16.1667L7.83203 11.1667L9.4987 9.5Z" stroke="white" stroke-width="1.5" stroke-linejoin="round"/>
</svg>
